!!!Melodie: eigene
!!!Typ: Lied
**kern	**silbe	**silbe	**silbe	**silbe	**silbe	**silbe	**silbe	**silbe	**silbe	**silbe	**silbe	**silbe	**silbe	**silbe	**silbe	**silbe	**silbe	**silbe	**silbe	**silbe	**silbe	**silbe	**silbe	**silbe	**silbe	**silbe	**silbe	**silbe	**silbe	**silbe	**silbe	**silbe
*clefG2	*lang:DE	*lang:DE	*lang:DE	*lang:DE	*lang:DE	*lang:DE	*lang:DE	*lang:DE	*lang:DE	*lang:DE	*lang:DE	*lang:DE	*lang:DE	*lang:DE	*lang:DE	*lang:DE	*lang:DE	*lang:DE	*lang:DE	*lang:DE	*lang:DE	*lang:DE	*lang:DE	*lang:DE	*lang:DE	*lang:DE	*lang:DE	*lang:DE	*lang:DE	*lang:DE	*lang:DE	*lang:DE
*k[b-]	*	*	*	*	*	*	*	*	*	*	*	*	*	*	*	*	*	*	*	*	*	*	*	*	*	*	*	*	*	*	*	*
*M4/4	*	*	*	*	*	*	*	*	*	*	*	*	*	*	*	*	*	*	*	*	*	*	*	*	*	*	*	*	*	*	*	*
*met(c)	*	*	*	*	*	*	*	*	*	*	*	*	*	*	*	*	*	*	*	*	*	*	*	*	*	*	*	*	*	*	*	*
4a	Gott	Gott	.	.	Gott	Hei#	.	.	Wir	Da	.	.	Ma#	Möcht’	.	.	Luft,	Meer	.	.	Du	Wie	.	.	Ma#	Mach	.	.	Herr,	Komm,	.	.
8Le	ist	ist	.	.	ist	#lig,	.	.	ent#	liegt	.	.	#jes#	ich,	.	.	die	ohn’	.	.	durch#	die	.	.	#che	mich	.	.	komm	du	.	.
8Jg	|	|	.	.	|	|	.	.	|	|	.	.	|	|	.	.	|	|	.	.	|	|	.	.	|	|	.	.	|	|	.	.
4f	ge#	in	.	.	ge#	hei#	.	.	#sa#	un#	.	.	#tä#	wie	.	.	al#	Grund	.	.	#dring#	zar#	.	.	mich	rei#	.	.	in	na#	.	.
8Le	#gen#	der	.	.	#gen#	#lig	.	.	#gen	#ser	.	.	#tisch'	die	.	.	#les	und	.	.	#est	#ten	.	.	ein#	#nes	.	.	mir	#hes	.	.
8Jg	|	|	.	.	|	|	.	.	|	|	.	.	|	|	.	.	|	|	.	.	|	|	.	.	|	|	.	.	|	|	.	.
=	=	=	=	=	=	=	=	=	=	=	=	=	=	=	=	=	=	=	=	=	=	=	=	=	=	=	=	=	=	=	=	=
4f	#wär#	Mit#	.	.	#wär#	sin#	.	.	wil#	Wil#	.	.	We#	Eng#	.	.	fül#	En#	.	.	al#	Blu#	.	.	#fäl#	Her#	.	.	woh#	We#	.	.
4d	#tig!	#ten!	.	.	#tig!	#gen	.	.	#lig	#le,	.	.	#sen!	#el,	.	.	#let!	#de!	.	.	#les,	#men	.	.	#tig,	#zens,	.	.	#nen,	#sen!	.	.
4.b-	Las#	Al#	.	.	Dem	al#	.	.	al#	See#	.	.	Möcht’	im#	.	.	Drinn’	Wun#	.	.	lass	wil#	.	.	in#	dass	.	.	lass	Dich	.	.
8b-	#set	#les	.	.	die	#le	.	.	#len	#le,	.	.	ich	#mer	.	.	wir	#der	.	.	dein	#lig	.	.	#nig,	ich	.	.	mein	in	.	.
=	=	=	=	=	=	=	=	=	=	=	=	=	=	=	=	=	=	=	=	=	=	=	=	=	=	=	=	=	=	=	=	=
8La	uns	in	.	.	Che#	Eng#	.	.	Ei#	Leib,	.	.	recht	vor	.	.	im#	al#	.	.	schön#	sich	.	.	ab#	dei#	.	.	Geist	mir	.	.
8Jcc	|	|	.	.	|	|	.	.	|	|	.	.	|	|	.	.	|	|	.	.	|	|	.	.	|	|	.	.	|	|	.	.
8Lb-	an#	uns	.	.	#ru#	#el	.	.	#tel#	und	.	.	dich	dir	.	.	#mer	#ler	.	.	#stes	ent#	.	.	#ge#	#ne	.	.	auf	ver#	.	.
8Ja	|	|	.	.	|	|	.	.	|	|	.	.	|	|	.	.	|	|	.	.	|	|	.	.	|	|	.	.	|	|	.	.
4g	#be#	schwei#	.	.	#bi#	Chö#	.	.	#kei#	Le#	.	.	prei#	ste#	.	.	schwe#	Wun#	.	.	Lich#	#fal#	.	.	#schie#	Klar#	.	.	Er#	#klä#	.	.
4g	#ten	#ge,	.	.	#nen	#ren,	.	.	#ten,	#ben,	.	.	#sen	#hen,	.	.	#ben,	#der!	.	.	#te,	#ten	.	.	#den,	#heit	.	.	#den	#re,	.	.
=	=	=	=	=	=	=	=	=	=	=	=	=	=	=	=	=	=	=	=	=	=	=	=	=	=	=	=	=	=	=	=	=
4a	und	und	.	.	Tag	wenn	.	.	al#	dir	.	.	und	und	.	.	al#	Ich	.	.	Herr,	und	.	.	sanf#	schau#	.	.	dir	dass	.	.
4e	in	sich	.	.	und	sie	.	.	#ler	zum	.	.	im	dich	.	.	#ler	senk	.	.	be#	der	.	.	#te,	#en	.	.	ein	ich	.	.
8Lf	Ehr#	in#	.	.	Nacht	die#	.	.	Er#	Ei#	.	.	Geist	ge#	.	.	Din#	mich	.	.	#rüh#	Son#	.	.	und	mag	.	.	Hei#	dich	.	.
8Je	|	|	.	.	|	|	.	.	|	|	.	.	|	|	.	.	|	|	.	.	|	|	.	.	|	|	.	.	|	|	.	.
4f	#furcht	#nigst	.	.	ge#	#ses	.	.	#den#	#gen#	.	.	dir	#gen#	.	.	#gen	in	.	.	#ren	#ne	.	.	im	im	.	.	#lig#	stets	.	.
=	=	=	=	=	=	=	=	=	=	=	=	=	=	=	=	=	=	=	=	=	=	=	=	=	=	=	=	=	=	=	=	=
(4g	vor	vor	.	.	#bük#	We#	.	.	#lust	#tum	.	.	Dienst	#wär#	.	.	Grund	dich	.	.	mein	stil#	.	.	stil#	Geist	.	.	#tum	lieb’	.	.
8f)	|	|	.	.	|	|	.	.	|	|	.	.	|	|	.	.	|	|	.	.	|	|	.	.	|	|	.	.	|	|	.	.
8g	ihn	ihm	.	.	#ket	#sen	.	.	und	er#	.	.	er#	#tig	.	.	und	hi#	.	.	Ge#	#le	.	.	#len	und	.	.	noch	und	.	.
4a	tre#	‘beu#	.	.	die#	eh#	.	.	Freu#	#ge#	.	.	#wei#	se#	.	.	Le#	#nun#	.	.	#sich#	hal#	.	.	Frie#	Wahr#	.	.	wer#	eh#	.	.
4a	#ten.	#ge;	.	.	#nen;	#ren:	.	.	#den;	#ben;	.	.	#sen!	#hen!	.	.	#ben!	#ter:	.	.	#te;	#ten;	.	.	#den;	#heit;	.	.	#den;	#re;	.	.
=:|:	=	=	=	=	=	=	=	=	=	=	=	=	=	=	=	=	=	=	=	=	=	=	=	=	=	=	=	=	=	=	=	=
4r	.	%	%	.	.	%	%	.	.	%	%	.	.	%	%	.	.	%	%	.	.	%	%	.	.	%	%	.	.	%	%	.
4cc	.	Wer	wer	.	.	Herr,	uns#	.	.	Du	sollst	.	.	Lass	für	.	.	Ich	du	.	.	lass	still	.	.	Lass	Ü#	.	.	Wo	sitz’	.
8Lb-	.	ihn	ihn	.	.	ver#	#'re	.	.	al#	es	.	.	mich	und	.	.	in	in	.	.	mich	und	.	.	mein	#ber#	.	.	ich	und	.
8Jcc	.	|	|	.	.	|	|	.	.	|	|	.	.	|	|	.	.	|	|	.	.	|	|	.	.	|	|	.	.	|	|	.
4a	.	kennt,	nennt,	.	.	#nimm	Stimm’,	.	.	#lein	sein,	.	.	dir	für	.	.	dir,	mir;	.	.	so,	froh,	.	.	Herz	#wärts	.	.	geh’,	steh’,	.
=:|	=	=	=	=	=	=	=	=	=	=	=	=	=	=	=	=	=	=	=	=	=	=	=	=	=	=	=	=	=	=	=	=
4dd	.	.	schlagt	kommt,	.	.	da	uns#	.	.	un#	Dir	.	.	trach#	lieb#	.	.	Lass	dich	.	.	dei#	und	.	.	wie	und	.	.	lass	und
4ee	.	.	die	er#	.	.	auch	#'re	.	.	#ser	ge#	.	.	#ten	#ster	.	.	mich	nur	.	.	#ne	dich	.	.	ein	in	.	.	mich	vor
4ff	.	.	Au#	#gebt	.	.	wir	Op#	.	.	Gott	#bührt	.	.	zu	Gott,	.	.	ganz	seh’n	.	.	Strah#	wir#	.	.	Ad#	dir	.	.	dich	dir
8La	.	.	#gen	euch	.	.	Ge#	#fer	.	.	und	die	.	.	ge#	in	.	.	ver#	und	.	.	#len	#ken	.	.	#ler	nur	.	.	er#	mich
8Jg	.	.	|	|	.	.	|	|	.	.	|	|	.	.	|	|	.	.	|	|	.	.	|	|	.	.	|	|	.	.	|	|
=	=	=	=	=	=	=	=	=	=	=	=	=	=	=	=	=	=	=	=	=	=	=	=	=	=	=	=	=	=	=	=	=
(4f	.	.	nie#	wie#	.	.	#rin#	brin#	.	.	Her#	Eh#	.	.	#fal#	al#	.	.	#schwin#	fin#	.	.	fas#	las#	.	.	schwe#	le#	.	.	#blik#	bük#
4e)	.	.	|	|	.	.	|	|	.	.	|	|	.	.	|	|	.	.	|	|	.	.	|	|	.	.	|	|	.	.	|	|
2d	.	.	#der,	#der.	.	.	#gen	#gen.	.	.	#re;	#re.	.	.	#len,	#len.	.	.	#den,	#den.	.	.	#sen,	#sen.	.	.	#ben,	#ben.	.	.	#ken,	#ken.
=:|	=	=	=	=	=	=	=	=	=	=	=	=	=	=	=	=	=	=	=	=	=	=	=	=	=	=	=	=	=	=	=	=
==	==	==	==	==	==	==	==	==	==	==	==	==	==	==	==	==	==	==	==	==	==	==	==	==	==	==	==	==	==	==	==	==
*-	*-	*-	*-	*-	*-	*-	*-	*-	*-	*-	*-	*-	*-	*-	*-	*-	*-	*-	*-	*-	*-	*-	*-	*-	*-	*-	*-	*-	*-	*-	*-	*-
